X: 1
T: Lasses Pissing Brandy
M: C|
L: 1/8
S: Vickers Manuscript (1770) #370 "Lasses Pisses Brandy"
N: Cleaned up to "Lasses Pass the Brandy" in some books.
K: AMix
|: ef/2g/2 ae fdec | eaac e2 f2 | ef/2g/2 ae fdec | BggB d2 f2 :|
|: eA c/2d/2e/2c/2 eA c/2d/2e/2c/2 | eaac e2 f2 | eA c/2d/2e/2c/2 eA c/2d/2e/2c/2 | BggB d2 f2 :|
